build/bank/TBank.svg

<svg xmlns="http://www.w3.org/2000/svg" fill="none" viewBox="0 0 40 40" focusable="false"><path d="M0 0H40V40H0z"/><path fill="#FFDD2D" d="M1 12.4C1 10.1598 1 9.03969 1.43597 8.18404C1.81947 7.43139 2.43139 6.81947 3.18404 6.43597C4.03969 6 5.15979 6 7.4 6L32.6 6C34.8402 6 35.9603 6 36.816 6.43597C37.5686 6.81947 38.1805 7.43139 38.564 8.18404C39 9.03969 39 10.1598 39 12.4L39 27.6C39 29.8402 39 30.9603 38.564 31.816C38.1805 32.5686 37.5686 33.1805 36.816 33.564C35.9603 34 34.8402 34 32.6 34L7.4 34C5.15979 34 4.03969 34 3.18404 33.564C2.43139 33.1805 1.81947 32.5686 1.43597 31.816C1 30.9603 1 29.8402 1 27.6L1 12.4Z"/><path fill="#FFF" d="M10 10L30 10L30 20.0575C30 22.6366 28.6085 25.0143 26.3462 26.3087L20 30L13.6605 26.3087C11.3982 25.024 10.0096 22.6366 10.0096 20.0575L10 10Z"/><path fill="#FFF" fill-rule="evenodd" d="M15 14L15 17.7951C15.4733 17.213 16.3254 16.8172 17.2931 16.8172L18.3555 16.8172L18.3555 21.2294C18.3555 22.4051 18.0715 23.4296 17.6403 24L22.3583 24C21.9271 23.4296 21.6667 22.4051 21.6667 21.2294L21.6667 16.8172L22.7 16.8172C23.6783 16.8172 24.5372 17.213 25 17.7951L25 14L15 14Z"/><path fill="#333" fill-rule="evenodd" d="M15 14L15 17.7951C15.4733 17.213 16.3254 16.8172 17.2931 16.8172L18.3555 16.8172L18.3555 21.2294C18.3555 22.4051 18.0715 23.4296 17.6403 24L22.3583 24C21.9271 23.4296 21.6667 22.4051 21.6667 21.2294L21.6667 16.8172L22.7 16.8172C23.6783 16.8172 24.5372 17.213 25 17.7951L25 14L15 14Z"/></svg>

<svg xmlns="http://www.w3.org/2000/svg" fill="none" viewBox="0 0 40 40" focusable="false"><path fill="none" d="M0 0h40v40H0z"/><path fill="#FFDD2D" d="M1 12.4c0-2.25 0-3.37.43-4.22a4 4 0 0 1 1.75-1.75C4.03 6 5.15 6 7.4 6h25.19c2.25 0 3.37 0 4.22.43a4 4 0 0 1 1.75 1.75c.44.85.44 1.97.44 4.22v15.2c0 2.24 0 3.36-.44 4.21a4 4 0 0 1-1.75 1.75c-.85.44-1.97.44-4.22.44H7.4c-2.25 0-3.37 0-4.22-.44a4 4 0 0 1-1.75-1.75C1 30.96 1 29.84 1 27.6z"/><path fill="#FFF" d="M10 10h20v10.05c0 2.58-1.4 4.96-3.66 6.25L20 30l-6.34-3.7A7.18 7.18 0 0 1 10 20.05z"/><path fill="#333" fill-rule="evenodd" d="M15 14v3.79c.47-.58 1.32-.98 2.29-.98h1.06v4.41c0 1.18-.28 2.2-.71 2.78h4.71c-.43-.58-.69-1.6-.69-2.78v-4.41h1.04c.97 0 1.83.4 2.3.98V14z"/></svg>
